build/img/sprite_auto.svg

<svg xmlns="http://www.w3.org/2000/svg" xmlns:xlink="http://www.w3.org/1999/xlink"><defs>
<clipPath>
<rect x="0.673828" y="0.326172" width="10.6522" height="10.6522"/>
</clipPath>

<clipPath>
<rect width="12" height="12"/>
</clipPath>

<clipPath>
<rect width="61.8683" height="61.8683"/>
</clipPath>
</defs><symbol id="icon-arrow_left" viewBox="0 0 14 8">
<path d="M0.646446 4.35355C0.451184 4.15829 0.451184 3.84171 0.646446 3.64645L3.82843 0.464466C4.02369 0.269204 4.34027 0.269204 4.53553 0.464466C4.7308 0.659728 4.7308 0.976311 4.53553 1.17157L1.70711 4L4.53553 6.82843C4.7308 7.02369 4.7308 7.34027 4.53553 7.53553C4.34027 7.7308 4.02369 7.7308 3.82843 7.53553L0.646446 4.35355ZM14 4.5H1V3.5H14V4.5Z"/>
</symbol><symbol id="icon-arrow_right" viewBox="0 0 14 8">
<path d="M13.3536 4.35355C13.5488 4.15829 13.5488 3.84171 13.3536 3.64645L10.1716 0.464466C9.97631 0.269204 9.65973 0.269204 9.46447 0.464466C9.2692 0.659728 9.2692 0.976311 9.46447 1.17157L12.2929 4L9.46447 6.82843C9.2692 7.02369 9.2692 7.34027 9.46447 7.53553C9.65973 7.7308 9.97631 7.7308 10.1716 7.53553L13.3536 4.35355ZM0 4.5H13V3.5H0V4.5Z"/>
</symbol><symbol id="icon-burger" viewBox="0 0 24 17">
<rect width="23.9017" height="1.85902"/>
<rect y="14.3408" width="23.9017" height="1.85902"/>
<rect y="7.17041" width="15.2971" height="1.85902"/>
</symbol><symbol id="icon-location" viewBox="0 0 9 12">
<path d="M4.49981 0C2.01874 0 0 1.98191 0 4.41796C0 5.05338 0.132472 5.66006 0.39354 6.2213C1.51862 8.63833 3.67571 11.1902 4.31017 11.9146C4.35771 11.9688 4.42701 12 4.49994 12C4.57287 12 4.64217 11.9688 4.6897 11.9146C5.32392 11.1903 7.48101 8.63857 8.60646 6.2213C8.86765 5.66006 9 5.05338 9 4.41796C8.99975 1.98191 6.98101 0 4.49981 0ZM4.49981 6.71267C3.21099 6.71267 2.16234 5.68315 2.16234 4.41784C2.16234 3.15241 3.21099 2.12289 4.49981 2.12289C5.78864 2.12289 6.83728 3.15241 6.83728 4.41784C6.83741 5.68315 5.78876 6.71267 4.49981 6.71267Z"/>
</symbol><symbol id="icon-moon" viewBox="0 0 20 20">
<path d="M19.5272 11.382C19.3228 11.3307 19.1183 11.382 18.9394 11.5103C18.2748 12.0745 17.5081 12.5362 16.6646 12.844C15.8723 13.1518 15.0033 13.3057 14.0831 13.3057C12.0128 13.3057 10.1215 12.4593 8.76681 11.0999C7.41217 9.74052 6.56872 7.84251 6.56872 5.76497C6.56872 4.89291 6.72207 4.0465 6.97767 3.27704C7.25882 2.45628 7.66777 1.71247 8.20451 1.07125C8.43454 0.789119 8.38343 0.378739 8.10227 0.147901C7.92336 0.0196574 7.71888 -0.0316401 7.51441 0.0196573C5.34188 0.609578 3.4505 1.91766 2.09586 3.66177C0.792336 5.38024 0 7.50908 0 9.84311C0 12.6388 1.12461 15.178 2.96487 17.0247C4.80513 18.8715 7.3355 20 10.1215 20C12.4729 20 14.6454 19.1792 16.3835 17.8199C18.147 16.4348 19.425 14.4599 19.9618 12.2028C20.0895 11.8181 19.8851 11.459 19.5272 11.382ZM15.6167 16.7426C14.1342 17.9225 12.2429 18.6406 10.1726 18.6406C7.74444 18.6406 5.54635 17.6403 3.96168 16.0501C2.37701 14.4599 1.3802 12.2541 1.3802 9.81746C1.3802 7.79122 2.04474 5.94451 3.1949 4.45688C3.98724 3.43094 4.98405 2.58453 6.13421 1.99461C6.00642 2.27674 5.87862 2.55888 5.77638 2.86666C5.44411 3.79002 5.29076 4.76467 5.29076 5.79062C5.29076 8.22724 6.28757 10.4587 7.87224 12.0489C9.45691 13.6391 11.6806 14.6394 14.1087 14.6394C15.1822 14.6394 16.2045 14.4599 17.1502 14.1008C17.4825 13.9726 17.8148 13.8443 18.1215 13.6904C17.5081 14.8703 16.6646 15.9219 15.6167 16.7426Z"/>
</symbol><symbol id="icon-social_fb" viewBox="0 0 12 11">
<g>
<path d="M6.66572 3.98786V2.65633C6.66572 2.28883 6.96398 1.99057 7.33148 1.99057H7.99724V0.326172H6.66572C5.56255 0.326172 4.66844 1.22029 4.66844 2.32345V3.98786H3.33691V5.65226H4.66844V10.9783H6.66572V5.65226H7.99724L8.663 3.98786H6.66572Z"/>
</g>

</symbol><symbol id="icon-social_ig" viewBox="0 0 13 13">
<path d="M9.41239 0H3.58745C1.60933 0 0 1.60941 0 3.58753V9.41247C0 11.3907 1.60933 13 3.58745 13H9.41239C11.3907 13 13 11.3906 13 9.41247V3.58753C13.0001 1.60941 11.3907 0 9.41239 0ZM11.8467 9.41247C11.8467 10.7547 10.7547 11.8466 9.41247 11.8466H3.58745C2.24533 11.8467 1.15342 10.7547 1.15342 9.41247V3.58753C1.15342 2.24541 2.24533 1.15342 3.58745 1.15342H9.41239C10.7546 1.15342 11.8466 2.24541 11.8466 3.58753L11.8467 9.41247Z"/>
<path d="M6.50006 3.15033C4.65297 3.15033 3.1503 4.65301 3.1503 6.50011C3.1503 8.34713 4.65297 9.84973 6.50006 9.84973C8.34715 9.84973 9.84982 8.34713 9.84982 6.50011C9.84982 4.65301 8.34715 3.15033 6.50006 3.15033ZM6.50006 8.69623C5.28905 8.69623 4.30372 7.71105 4.30372 6.50003C4.30372 5.28893 5.28897 4.30368 6.50006 4.30368C7.71115 4.30368 8.69641 5.28893 8.69641 6.50003C8.69641 7.71105 7.71108 8.69623 6.50006 8.69623Z"/>
<path d="M9.99027 2.1724C9.76803 2.1724 9.54971 2.26236 9.39276 2.41999C9.23504 2.57686 9.14437 2.79524 9.14437 3.01823C9.14437 3.24053 9.23512 3.45883 9.39276 3.61646C9.54963 3.77333 9.76803 3.86406 9.99027 3.86406C10.2133 3.86406 10.4309 3.77333 10.5885 3.61646C10.7462 3.45883 10.8362 3.24045 10.8362 3.01823C10.8362 2.79524 10.7462 2.57686 10.5885 2.41999C10.4317 2.26236 10.2133 2.1724 9.99027 2.1724Z"/>
</symbol><symbol id="icon-social_vk" viewBox="0 0 12 12">
<g>
<path d="M11.8931 8.68356C11.8608 8.62955 11.6613 8.19602 10.7012 7.30495C9.69614 6.37188 9.83115 6.5234 11.0417 4.91003C11.779 3.92745 12.0738 3.32741 11.9816 3.07089C11.8938 2.82637 11.3515 2.89088 11.3515 2.89088L9.54838 2.90138C9.54838 2.90138 9.41487 2.88337 9.31511 2.94263C9.21835 3.00113 9.1561 3.13614 9.1561 3.13614C9.1561 3.13614 8.87033 3.8967 8.4893 4.54325C7.68599 5.9076 7.36421 5.9796 7.23295 5.89485C6.92768 5.69758 7.00419 5.10129 7.00419 4.67826C7.00419 3.35591 7.20445 2.80462 6.61341 2.66211C6.41689 2.61485 6.27288 2.58335 5.7711 2.5781C5.12755 2.57135 4.58226 2.58035 4.27398 2.73111C4.06847 2.83162 3.91021 3.05589 4.00696 3.06864C4.12622 3.08439 4.39624 3.14139 4.5395 3.33641C4.72477 3.58768 4.71802 4.15322 4.71802 4.15322C4.71802 4.15322 4.82453 5.70958 4.46975 5.9031C4.22598 6.03586 3.89221 5.76509 3.1759 4.52675C2.80913 3.89295 2.53161 3.19165 2.53161 3.19165C2.53161 3.19165 2.47835 3.06114 2.38309 2.99138C2.26759 2.90663 2.10557 2.87962 2.10557 2.87962L0.390947 2.89013C0.390947 2.89013 0.133677 2.89763 0.0391703 3.00938C-0.0448359 3.10914 0.0324198 3.31466 0.0324198 3.31466C0.0324198 3.31466 1.37502 6.45514 2.89463 8.03851C4.28899 9.48986 5.8716 9.39461 5.8716 9.39461H6.58866C6.58866 9.39461 6.80542 9.37061 6.91568 9.25135C7.01769 9.14184 7.01394 8.93632 7.01394 8.93632C7.01394 8.93632 6.99969 7.974 7.44672 7.83224C7.887 7.69273 8.45255 8.76231 9.05184 9.17409C9.50487 9.48536 9.84915 9.41711 9.84915 9.41711L11.452 9.39461C11.452 9.39461 12.2906 9.34285 11.8931 8.68356Z"/>
</g>

</symbol><symbol id="icon-star" viewBox="0 0 15 14">
<path d="M7.74525 10.6054L7.5 10.4674L7.25475 10.6054L3.63071 12.6453L4.57642 8.85066L4.6535 8.54141L4.40569 8.34098L1.28779 5.81931L5.43318 5.48733L5.72674 5.46382L5.84852 5.19567L7.5 1.55921L9.15151 5.19568L9.27329 5.46382L9.56685 5.48733L13.7122 5.81931L10.5943 8.34098L10.3465 8.54141L10.4236 8.85066L11.3693 12.6453L7.74525 10.6054Z"/>
</symbol><symbol id="icon-sun" viewBox="0 0 23 22">
<path d="M15.655 7.10055C14.6779 6.11113 13.2984 5.47092 11.8039 5.47092C10.3095 5.47092 8.93 6.08203 7.95286 7.10055C6.97571 8.08996 6.34345 9.48679 6.34345 11C6.34345 12.5132 6.97571 13.9101 7.95286 14.8995C8.93 15.8889 10.3095 16.5291 11.8039 16.5291C13.2984 16.5291 14.6779 15.918 15.655 14.8995C16.6322 13.9101 17.2645 12.5132 17.2645 11C17.2645 9.48679 16.6609 8.08996 15.655 7.10055ZM14.6204 13.8519C13.9019 14.5794 12.896 15.0159 11.8039 15.0159C10.7118 15.0159 9.70597 14.5794 8.98748 13.8519C8.26899 13.1243 7.8379 12.1058 7.8379 11C7.8379 9.89419 8.26899 8.87568 8.98748 8.14817C9.70597 7.42065 10.7118 6.98415 11.8039 6.98415C12.896 6.98415 13.9019 7.42065 14.6204 8.14817C15.3389 8.87568 15.77 9.89419 15.77 11C15.77 12.1058 15.3389 13.1243 14.6204 13.8519Z"/>
<path d="M21.9202 10.2434H19.7073C19.305 10.2434 18.9601 10.5926 18.9601 11C18.9601 11.4074 19.305 11.7566 19.7073 11.7566H21.9202C22.3226 11.7566 22.6675 11.4074 22.6675 11C22.6675 10.5926 22.3226 10.2434 21.9202 10.2434Z"/>
<path d="M11.8039 18.246C11.4016 18.246 11.0567 18.5952 11.0567 19.0026V21.2434C11.0567 21.6508 11.4016 22 11.8039 22C12.2063 22 12.5512 21.6508 12.5512 21.2434V19.0026C12.5512 18.5952 12.2063 18.246 11.8039 18.246Z"/>
<path d="M19.4774 17.7222L17.8967 16.1216C17.6381 15.8306 17.1495 15.8306 16.8621 16.1216C16.5747 16.4126 16.5747 16.8782 16.8621 17.1693L18.4428 18.7698C18.7302 19.0608 19.19 19.0608 19.4774 18.7698C19.7648 18.4788 19.7648 18.0132 19.4774 17.7222Z"/>
<path d="M11.8039 0C11.4016 0 11.0567 0.349205 11.0567 0.756611V2.99735C11.0567 3.40475 11.4016 3.75396 11.8039 3.75396C12.2063 3.75396 12.5512 3.40475 12.5512 2.99735V0.756611C12.5512 0.349205 12.2063 0 11.8039 0Z"/>
<path d="M19.5061 3.23018C19.2187 2.93918 18.7589 2.93918 18.4715 3.23018L16.8908 4.8307C16.6034 5.12171 16.6034 5.58732 16.8908 5.87832C17.1495 6.16932 17.6381 6.16932 17.9255 5.87832L19.5061 4.2778C19.7935 3.98679 19.7935 3.52118 19.5061 3.23018Z"/>
<path d="M3.9006 10.2434H1.68766C1.2853 10.2434 0.94043 10.5926 0.94043 11C0.94043 11.4074 1.25656 11.7566 1.68766 11.7566H3.9006C4.30295 11.7566 4.64782 11.4074 4.64782 11C4.64782 10.5926 4.30295 10.2434 3.9006 10.2434Z"/>
<path d="M6.71707 16.1216C6.45841 15.8306 5.96984 15.8306 5.68245 16.1216L4.10177 17.7222C3.81438 18.0132 3.81438 18.4788 4.10177 18.7698C4.38917 19.0608 4.849 19.0608 5.13639 18.7698L6.71707 17.1693C7.00446 16.8782 7.00446 16.4126 6.71707 16.1216Z"/>
<path d="M6.71707 4.8307L5.13639 3.23018C4.849 2.93918 4.38917 2.93918 4.10177 3.23018C3.81438 3.52118 3.81438 3.98679 4.10177 4.2778L5.68245 5.87832C5.96984 6.16932 6.42967 6.16932 6.71707 5.87832C7.00446 5.58732 7.00446 5.12171 6.71707 4.8307Z"/>
</symbol><symbol id="logo" viewBox="0 0 62 62">
<g>
<path d="M22.7825 40.1768L28.2395 34.447L34.4468 40.1768H45.0878L28.1713 23.6013L11.3911 40.1768H22.7825Z"/>
<path d="M38.4033 13.5742L30.3543 21.7596L35.6749 27.2166L38.4033 24.4881L53.3418 39.3583C49.9312 48.4305 41.2 54.9106 30.9 54.9106C17.6669 54.9106 6.95762 44.2014 6.95762 30.9682C7.02583 17.7351 17.7351 7.02583 30.9682 7.02583C42.7007 7.02583 52.5232 15.5523 54.5014 26.6709L61.7318 34.3106C61.8683 33.2192 61.9365 32.0596 61.9365 30.9682C61.9365 22.7146 58.7305 14.9384 52.8643 9.07219C46.998 3.20596 39.2219 0 30.9682 0C22.6464 0 14.9384 3.20596 9.07219 9.07219C3.20596 14.9384 0 22.6464 0 30.9682C0 39.2901 3.20596 46.998 9.07219 52.8643C14.9384 58.7305 22.7146 61.9365 30.9682 61.9365C39.2219 61.9365 46.998 58.7305 52.8643 52.8643C56.4795 49.249 59.0716 44.9517 60.504 40.2451C60.7769 39.4265 60.9815 38.5398 61.1861 37.7212L54.9106 31.1047L38.4033 13.5742Z"/>
</g>

</symbol></svg>

<svg xmlns="http://www.w3.org/2000/svg" xmlns:xlink="http://www.w3.org/1999/xlink"><defs><clipPath><path d="M.674.326h10.652v10.652H.674z"/></clipPath><clipPath><path d="M0 0h12v12H0z"/></clipPath><clipPath><path d="M0 0h61.868v61.868H0z"/></clipPath></defs><symbol id="icon-arrow_left"><path d="M.646 4.354a.5.5 0 010-.708L3.828.464a.5.5 0 11.708.708L1.707 4l2.829 2.828a.5.5 0 11-.708.708L.646 4.354zM14 4.5H1v-1h13v1z"/></symbol><symbol id="icon-arrow_right"><path d="M13.354 4.354a.5.5 0 000-.708L10.172.464a.5.5 0 00-.708.708L12.293 4 9.464 6.828a.5.5 0 10.708.708l3.182-3.182zM0 4.5h13v-1H0v1z"/></symbol><symbol id="icon-burger"><path d="M0 0h23.902v1.859H0zm0 14.341h23.902V16.2H0zM0 7.17h15.297v1.859H0z"/></symbol><symbol id="icon-location"><path d="M4.5 0C2.019 0 0 1.982 0 4.418c0 .635.132 1.242.394 1.803 1.125 2.417 3.282 4.97 3.916 5.694a.252.252 0 00.38 0c.634-.725 2.791-3.276 3.916-5.694A4.241 4.241 0 009 4.418C9 1.982 6.981 0 4.5 0zm0 6.713c-1.289 0-2.338-1.03-2.338-2.295 0-1.266 1.049-2.295 2.338-2.295 1.289 0 2.337 1.03 2.337 2.295S5.79 6.713 4.5 6.713z"/></symbol><symbol id="icon-moon"><path d="M19.527 11.382a.7.7 0 00-.588.128 7.495 7.495 0 01-2.274 1.334 7.1 7.1 0 01-2.582.462A7.503 7.503 0 018.767 11.1a7.556 7.556 0 01-2.198-5.335c0-.872.153-1.718.409-2.488.28-.82.69-1.565 1.227-2.206a.656.656 0 00-.103-.923.701.701 0 00-.588-.128C5.342.61 3.45 1.918 2.096 3.662A10.18 10.18 0 000 9.843a10.14 10.14 0 002.965 7.182A10.066 10.066 0 0010.12 20c2.352 0 4.524-.82 6.263-2.18a10.118 10.118 0 003.578-5.617c.128-.385-.077-.744-.435-.821zm-3.91 5.36a8.715 8.715 0 01-5.444 1.899c-2.429 0-4.627-1-6.211-2.59A8.817 8.817 0 011.38 9.816c0-2.026.665-3.872 1.815-5.36a8.795 8.795 0 012.94-2.462 8.739 8.739 0 00-.359.872c-.332.923-.485 1.898-.485 2.924a8.88 8.88 0 002.581 6.258 8.816 8.816 0 006.237 2.59 8.53 8.53 0 003.041-.538c.333-.128.665-.257.972-.41a9.324 9.324 0 01-2.505 3.052z"/></symbol><symbol id="icon-social_fb"><g><path d="M6.666 3.988V2.656c0-.367.298-.665.665-.665h.666V.326H6.666a1.997 1.997 0 00-1.998 1.997v1.665H3.337v1.664h1.331v5.326h1.998V5.652h1.331l.666-1.664H6.666z"/></g></symbol><symbol id="icon-social_ig"><path d="M9.412 0H3.587A3.592 3.592 0 000 3.588v5.824A3.592 3.592 0 003.587 13h5.825A3.592 3.592 0 0013 9.412V3.588A3.592 3.592 0 009.412 0zm2.435 9.412a2.437 2.437 0 01-2.435 2.435H3.587a2.437 2.437 0 01-2.434-2.435V3.588a2.437 2.437 0 012.434-2.435h5.825a2.437 2.437 0 012.435 2.435v5.824z"/><path d="M6.5 3.15A3.354 3.354 0 003.15 6.5 3.353 3.353 0 006.5 9.85 3.353 3.353 0 009.85 6.5 3.354 3.354 0 006.5 3.15zm0 5.546A2.199 2.199 0 014.304 6.5c0-1.211.985-2.196 2.196-2.196 1.211 0 2.196.985 2.196 2.196A2.199 2.199 0 016.5 8.696zm3.49-6.524a.85.85 0 00-.846.846c0 .223.091.44.249.598a.852.852 0 00.597.248.85.85 0 00.598-.248.85.85 0 00-.598-1.444z"/></symbol><symbol id="icon-social_vk"><g><path d="M11.893 8.684c-.032-.054-.232-.488-1.192-1.379-1.005-.933-.87-.782.34-2.395.738-.983 1.033-1.583.94-1.84-.087-.244-.63-.18-.63-.18l-1.803.011s-.133-.018-.233.042c-.097.058-.159.193-.159.193s-.286.76-.667 1.407C7.686 5.908 7.364 5.98 7.233 5.895c-.305-.197-.229-.794-.229-1.217 0-1.322.2-1.873-.39-2.016-.197-.047-.341-.079-.843-.084-.643-.007-1.189.002-1.497.153-.206.1-.364.325-.267.338.12.015.39.072.533.267.185.252.178.817.178.817s.107 1.557-.248 1.75c-.244.133-.578-.138-1.294-1.376a11.544 11.544 0 01-.644-1.335s-.054-.13-.149-.2a.741.741 0 00-.277-.112L.39 2.89s-.257.008-.352.12c-.084.1-.007.305-.007.305s1.343 3.14 2.863 4.724c1.394 1.45 2.977 1.356 2.977 1.356h.717s.216-.024.327-.144c.102-.11.098-.315.098-.315S7 7.974 7.447 7.832c.44-.14 1.006.93 1.605 1.342.453.311.797.243.797.243l1.603-.022s.839-.052.441-.711z"/></g></symbol><symbol id="icon-star"><path d="M7.745 10.605l-.245-.138-.245.138-3.624 2.04.945-3.794.078-.31-.248-.2-3.118-2.522 4.145-.332.294-.023.122-.268L7.5 1.559l1.652 3.637.121.268.294.023 4.145.332-3.118 2.522-.247.2.077.31.945 3.794-3.624-2.04z"/></symbol><symbol id="icon-sun"><path d="M15.655 7.1c-.977-.989-2.357-1.63-3.851-1.63A5.328 5.328 0 007.953 7.1a5.583 5.583 0 00-1.61 3.9c0 1.513.633 2.91 1.61 3.9.977.989 2.356 1.63 3.85 1.63a5.327 5.327 0 003.852-1.63 5.583 5.583 0 001.61-3.9c0-1.513-.604-2.91-1.61-3.9zm-1.035 6.752a3.95 3.95 0 01-2.816 1.164 3.95 3.95 0 01-2.817-1.164A4.052 4.052 0 017.837 11c0-1.106.432-2.124 1.15-2.852a3.95 3.95 0 012.817-1.164 3.95 3.95 0 012.816 1.164A4.051 4.051 0 0115.77 11a4.052 4.052 0 01-1.15 2.852zm7.3-3.609h-2.213a.766.766 0 00-.747.757c0 .407.345.757.747.757h2.213c.403 0 .747-.35.747-.757a.766.766 0 00-.747-.757zm-10.116 8.003a.766.766 0 00-.747.757v2.24c0 .408.345.757.747.757s.747-.35.747-.757v-2.24a.766.766 0 00-.747-.757zm7.673-.524l-1.58-1.6c-.259-.291-.747-.291-1.035 0a.744.744 0 000 1.047l1.58 1.6a.722.722 0 001.035 0 .744.744 0 000-1.047zM11.804 0a.766.766 0 00-.747.757v2.24c0 .408.345.757.747.757s.747-.35.747-.757V.757A.766.766 0 0011.804 0zm7.702 3.23a.722.722 0 00-1.035 0l-1.58 1.6a.744.744 0 000 1.048c.259.291.747.291 1.035 0l1.58-1.6a.744.744 0 000-1.048zM3.9 10.243H1.689A.766.766 0 00.94 11c0 .407.317.757.748.757H3.9c.402 0 .747-.35.747-.757a.766.766 0 00-.747-.757zm2.817 5.879c-.259-.291-.747-.291-1.035 0l-1.58 1.6a.744.744 0 000 1.048.722.722 0 001.034 0l1.581-1.6a.744.744 0 000-1.048zm0-11.292l-1.58-1.6a.722.722 0 00-1.035 0 .744.744 0 000 1.048l1.58 1.6a.722.722 0 001.035 0 .744.744 0 000-1.047z"/></symbol><symbol id="logo"><g><path d="M22.782 40.177l5.457-5.73 6.208 5.73h10.64L28.172 23.6l-16.78 16.576h11.391z"/><path d="M38.403 13.574l-8.049 8.186 5.32 5.457 2.73-2.729 14.938 14.87C49.932 48.431 41.2 54.911 30.9 54.911c-13.233 0-23.942-10.71-23.942-23.943.068-13.233 10.777-23.942 24.01-23.942 11.733 0 21.555 8.526 23.533 19.645l7.23 7.64a27.46 27.46 0 00.206-3.343c0-8.253-3.206-16.03-9.073-21.896C46.998 3.206 39.222 0 30.968 0c-8.322 0-16.03 3.206-21.896 9.072S0 22.646 0 30.968c0 8.322 3.206 16.03 9.072 21.896 5.866 5.867 13.643 9.073 21.896 9.073 8.254 0 16.03-3.206 21.896-9.073 3.616-3.615 6.208-7.912 7.64-12.619.273-.819.477-1.705.682-2.524l-6.275-6.616-16.508-17.53z"/></g></symbol></svg>
